svg/database_eye_outline.svg

<svg xmlns="http://www.w3.org/2000/svg" viewBox="0 0 24 24"><path d="m9.1 19.7-.3-.7.2-.4c-1.9-.5-3-1.3-3-1.6v-2.2c1.3.6 2.8 1 4.6 1.2.7-.8 1.6-1.5 2.5-2H12c-2.4 0-4.7-.6-6-1.5V9.6c1.5.8 3.6 1.4 6 1.4s4.5-.5 6-1.4v2.8c-.3.2-.6.4-1 .6q1.5 0 3 .6V7c0-2.2-3.6-4-8-4S4 4.8 4 7v10c0 1.8 2.4 3.3 5.7 3.8-.2-.3-.4-.7-.6-1.1M12 5c3.9 0 6 1.5 6 2s-2.1 2-6 2-6-1.5-6-2 2.1-2 6-2m5 13c.6 0 1 .4 1 1s-.4 1-1 1-1-.4-1-1 .4-1 1-1m0-3c-2.7 0-5.1 1.7-6 4 .9 2.3 3.3 4 6 4s5.1-1.7 6-4c-.9-2.3-3.3-4-6-4m0 6.5c-1.4 0-2.5-1.1-2.5-2.5s1.1-2.5 2.5-2.5 2.5 1.1 2.5 2.5-1.1 2.5-2.5 2.5"/></svg>

<svg xmlns="http://www.w3.org/2000/svg" id="mdi-database-eye-outline" viewBox="0 0 24 24"><path d="M9.1 19.7L8.8 19L9 18.6C7.1 18.1 6 17.3 6 17V14.8C7.3 15.4 8.8 15.8 10.6 16C11.3 15.2 12.2 14.5 13.1 14H12C9.6 14 7.3 13.4 6 12.5V9.6C7.5 10.4 9.6 11 12 11S16.5 10.5 18 9.6V12.4C17.7 12.6 17.4 12.8 17 13C18 13 19 13.2 20 13.6V7C20 4.8 16.4 3 12 3S4 4.8 4 7V17C4 18.8 6.4 20.3 9.7 20.8C9.5 20.5 9.3 20.1 9.1 19.7M12 5C15.9 5 18 6.5 18 7S15.9 9 12 9 6 7.5 6 7 8.1 5 12 5M17 18C17.6 18 18 18.4 18 19S17.6 20 17 20 16 19.6 16 19 16.4 18 17 18M17 15C14.3 15 11.9 16.7 11 19C11.9 21.3 14.3 23 17 23S22.1 21.3 23 19C22.1 16.7 19.7 15 17 15M17 21.5C15.6 21.5 14.5 20.4 14.5 19S15.6 16.5 17 16.5 19.5 17.6 19.5 19 18.4 21.5 17 21.5Z" /></svg>
